poll-box-outline.svg

<svg fill="currentColor" viewBox="0 0 24 24"><path d="M9 17H7v-7h2m4 7h-2V7h2m4 10h-2v-4h2m2.5 6.1h-15V5h15m0-2h-15c-1.1 0-2 .9-2 2v14c0 1.1.9 2 2 2h15c1.1 0 2-.9 2-2V5c0-1.1-.9-2-2-2"/></svg>

<svg  viewBox="0 0 24 24" fill="currentColor"><path  d="M9 17H7V10H9M13 17H11V7H13M17 17H15V13H17M19.5 19.1H4.5V5H19.5M19.5 3H4.5C3.4 3 2.5 3.9 2.5 5V19C2.5 20.1 3.4 21 4.5 21H19.5C20.6 21 21.5 20.1 21.5 19V5C21.5 3.9 20.6 3 19.5 3Z"/></svg>
